X:241
T:Bob Campbell
C:Murial A Johnstone
R:reel
N:Suggested tune for The Dancing Man
B:RSCDS "A Second Book of Graded Scottish Country Dances" (Graded 2) p.49 #24
Z:2011 John Chambers <jc:trillian.mit.edu>
M:4/4
L:1/8
K:G
(3DEF |\
"G"G2BG "C"AGEF | "G"GABd "C"e2eg | "G"dgBd "Am"cBAG | "Am"AcEA "D7"GFED |
"G"G2BG "C"AGEF | "G"GABd "C"e2eg | "G"dgBd "D7"cAFA | "G"G2B2 G2  :|
|: (3def |\
"G"g2bg "C"agef | "G"gabg "D7"d2ef | "G"g2bg "C"agef | "G"gedB "D7"A2 (3def |
"G"g2bg "C"agef | "G7"gabg "C"e2eg | "G"dgBd "D7"cAFA | "G"G2B2 G2 :|
